src/components/class-icon/images/Cleric.svg

<?xml version="1.0" encoding="UTF-8"?>
<svg width="60px" height="100px" viewBox="0 0 60 100" version="1.1" xmlns="http://www.w3.org/2000/svg" xmlns:xlink="http://www.w3.org/1999/xlink">
    <!-- Generator: Sketch 53.2 (72643) - https://sketchapp.com -->
    <title>ClassIcon/Cleric</title>
    <desc>Created with Sketch.</desc>
    <g id="ClassIcon/Cleric" stroke="none" stroke-width="1" fill="none" fill-rule="evenodd">
        <g transform="translate(0.000000, 0.000000)" fill="#00040C" fill-rule="nonzero" id="Path">
            <path d="M28,13.1782178 C28.6336634,8.8019802 29.039604,4.37623762 29.7029703,0 C30.3663366,4.37623762 30.7722772,8.8019802 31.4059406,13.1782178 C32.1188119,15.009901 32.980198,16.7821782 33.7326733,18.5940594 C33.9306931,19.1881188 34.6138614,19.2871287 35.0891089,19.5841584 C36.099765,20.1073234 37.1451239,20.5605328 38.2178218,20.9405941 C39.7524752,21.1980198 41.2772277,21.5643564 42.8118812,21.7722772 C44.2970297,21.4059406 45.6930693,20.7821782 47.1683168,20.3366337 C46.7623762,22.3168317 46.2475248,24.2970297 45.8712871,26.2772277 C45.970297,27.5247525 46.3564356,28.7326733 46.5643564,29.970297 C46.7425743,31.8217822 48.1683168,33.1782178 49.029703,34.7326733 C50.2178218,35.7227723 51.6435644,36.4851485 52.9207921,37.3960396 C54.6039604,38.8019802 56.8811881,38.6435644 58.9207921,39.2673267 C57.5049505,40.2574257 55.6732673,40.5841584 54.4752475,41.8910891 C52.970297,43.3069307 51.3762376,44.6336634 49.9306931,46.0990099 C48.8712871,48.6732673 47.8613861,51.2772277 46.8712871,53.8811881 C46.7821782,55.6534653 46.8712871,57.4455446 46.8712871,59.2277228 C47.1584158,61.009901 47.6930693,62.7524752 48.019802,64.5247525 C45.6732673,61.3861386 43.4554455,58.1386139 41.1683168,54.960396 C47.7227723,48.4455446 48.5346535,37.2475248 43.2871287,29.7128713 C40.9235765,26.1601217 37.2372954,23.7002242 33.049505,22.8811881 C31.5672721,22.674887 30.0695189,22.6019875 28.5742574,22.6633663 C25.2267281,22.7439073 22.0025497,23.9429531 19.4158416,26.0693069 C16.2427485,28.7291941 14.0448098,32.3692035 13.1683168,36.4158416 C11.6018372,43.0457697 13.4986056,50.0179773 18.2079208,54.9405941 C15.9207921,58.1188119 13.7029703,61.3663366 11.3564356,64.5049505 C11.6831683,62.7326733 12.2178218,60.990099 12.5049505,59.2079208 C12.5049505,57.4257426 12.6237624,55.6336634 12.5049505,53.8613861 C11.5148515,51.2574257 10.5247525,48.6534653 9.44554455,46.0792079 C8,44.6138614 6.40594059,43.2871287 4.9009901,41.8712871 C3.7029703,40.5643564 1.87128713,40.2277228 0.455445545,39.2475248 C2.43564356,38.6237624 4.77227723,38.7821782 6.45544554,37.3762376 C7.7029703,36.5049505 9.02970297,35.7425743 10.2475248,34.8316832 C11.049505,33.6534653 11.8415842,32.4554455 12.5346535,31.2178218 C12.8811881,29.6039604 13.2574257,27.990099 13.5247525,26.3663366 C13.1782178,24.3267327 12.6237624,22.3267327 12.2178218,20.2970297 C13.6633663,20.7128713 15.039604,21.2871287 16.4851485,21.7227723 C17.8118812,21.6138614 19.1188119,21.2376238 20.4455446,21.039604 C21.7722772,20.8415842 23.1287129,20.049505 24.4554455,19.4752475 C24.8910891,19.2475248 25.4455446,19.1287129 25.6633663,18.5940594 C26.4158416,16.7821782 27.2772277,15.009901 27.990099,13.1782178"></path>
            <path d="M29.1485149,30.4059406 C29.3663366,29.5247525 29.4653465,28.6039604 29.7029703,27.7227723 C29.9405941,28.6039604 30.039604,29.5247525 30.2574257,30.4059406 C31.514313,30.6009269 32.7460741,30.932938 33.9306931,31.3960396 C34.8217822,30.6831683 35.3960396,29.6435644 36.2376238,28.8712871 C36,30.009901 35.5346535,31.0693069 35.2475248,32.1782178 C36.3129878,32.9822774 37.2567249,33.9360187 38.049505,35.009901 C39.1881188,34.6435644 40.3069307,34.2079208 41.4653465,33.9306931 C40.6633663,34.8316832 39.6534653,35.5148515 38.8118812,36.3861386 C39.2707541,37.5729872 39.5736148,38.8143832 39.7128713,40.0792079 C40.9005487,40.2673529 42.0722314,40.5453793 43.2178218,40.9108911 C42.029703,41.1386139 40.8316832,41.3663366 39.6534653,41.6633663 C39.5001436,42.8649953 39.1663519,44.0366042 38.6633663,45.1386139 C39.5148515,46.1287129 40.6435644,46.8910891 41.5445545,47.8613861 C40.2574257,47.5148515 39.019802,47.009901 37.7326733,46.6831683 C36.9755716,47.6302551 36.0928515,48.469672 35.1089109,49.1782178 C35.4455446,50.3861386 36,51.5445545 36.2376238,52.7722772 C35.3069307,51.9405941 34.6930693,50.7920792 33.7326733,50.009901 C33.208289,50.0444598 32.6947631,50.1753585 32.2178218,50.3960396 C32.1287129,52.039604 32.2178218,53.6831683 32.1386139,55.3465347 C32.1386139,55.9306931 31.2871287,56.1386139 31.3960396,56.7623762 C31.5544554,67.4554455 31.7128713,78.1518152 31.8712871,88.8514851 C31.7920792,90.4158416 33.0891089,91.6633663 33.019802,93.2376238 C33.019802,94.5742574 33.1188119,95.9108911 33.1089109,97.2574257 C32.4158416,97.7425743 31.6732673,98.1584158 30.980198,98.6534653 C30.2443229,99.2180252 29.2210236,99.2180252 28.4851485,98.6534653 C27.7920792,98.1584158 27.049505,97.7425743 26.3564356,97.2574257 C26.3564356,95.9108911 26.4356436,94.5742574 26.4455446,93.2376238 C26.3762376,91.6633663 27.6732673,90.4158416 27.5940594,88.8514851 C27.7425743,78.1188119 27.9207921,67.3861386 28.0594059,56.6534653 C28.0594059,56.0891089 27.3366337,55.9009901 27.3267327,55.3465347 C27.2574257,53.7128713 27.3267327,52.0693069 27.2475248,50.3960396 C26.776305,50.1628353 26.2661274,50.0185088 25.7425743,49.970297 C24.7524752,50.7524752 24.1782178,51.950495 23.2376238,52.7326733 C23.4752475,51.5049505 24.029703,50.3465347 24.3663366,49.1386139 C23.3833111,48.4324702 22.5035529,47.592701 21.7524752,46.6435644 C20.4554455,46.970297 19.2178218,47.4752475 17.9306931,47.8217822 C18.8316832,46.8316832 19.9108911,46.1089109 20.8217822,45.0990099 C20.3003896,43.9878349 19.9562842,42.8018408 19.8019802,41.5841584 C18.6237624,41.2871287 17.4257426,41.0594059 16.2376238,40.8316832 C17.3832141,40.4661713 18.5548968,40.1881449 19.7425743,40 C19.8826323,38.7321052 20.1854549,37.4875376 20.6435644,36.2970297 C19.8019802,35.4356436 18.7920792,34.7524752 17.990099,33.8514851 C19.1485149,34.1287129 20.2673267,34.5643564 21.4059406,34.9306931 C22.1987206,33.8568108 23.1424577,32.9030694 24.2079208,32.0990099 C23.8811881,30.990099 23.4158416,29.9306931 23.2178218,28.7920792 C24.049505,29.5841584 24.6633663,30.5841584 25.5247525,31.3465347 C26.7011302,30.8588174 27.9358863,30.5259991 29.1980198,30.3564356"></path>
        </g>
    </g>
</svg>

<svg viewBox="0 0 60 100" xmlns="http://www.w3.org/2000/svg"><g fill="#00040C" fill-rule="nonzero"><path d="M28 13.178C28.634 8.802 29.04 4.376 29.703 0c.663 4.376 1.07 8.802 1.703 13.178.713 1.832 1.574 3.604 2.327 5.416.198.594.88.693 1.356.99 1.01.523 2.056.977 3.129 1.357 1.534.257 3.06.623 4.594.831 1.485-.366 2.881-.99 4.356-1.435-.406 1.98-.92 3.96-1.297 5.94.1 1.248.485 2.456.693 3.693.179 1.852 1.604 3.208 2.466 4.763 1.188.99 2.614 1.752 3.89 2.663 1.684 1.406 3.961 1.248 6 1.871-1.415.99-3.247 1.317-4.445 2.624-1.505 1.416-3.099 2.743-4.544 4.208a309.258 309.258 0 0 0-3.06 7.782c-.089 1.772 0 3.565 0 5.347.287 1.782.822 3.524 1.149 5.297-2.347-3.139-4.565-6.386-6.852-9.565 6.555-6.514 7.367-17.712 2.12-25.247A15.98 15.98 0 0 0 33.05 22.88a25.02 25.02 0 0 0-4.476-.218 14.99 14.99 0 0 0-9.158 3.406 18.653 18.653 0 0 0-6.248 10.347 20.109 20.109 0 0 0 5.04 18.525c-2.287 3.178-4.505 6.425-6.852 9.564.327-1.772.862-3.515 1.149-5.297 0-1.782.119-3.574 0-5.347-.99-2.604-1.98-5.208-3.06-7.782-1.445-1.465-3.04-2.792-4.544-4.208-1.198-1.307-3.03-1.643-4.446-2.623 1.98-.624 4.317-.466 6-1.872 1.248-.871 2.575-1.633 3.793-2.544.802-1.179 1.594-2.377 2.287-3.614.346-1.614.722-3.228.99-4.852-.347-2.04-.901-4.04-1.307-6.069 1.445.416 2.822.99 4.267 1.426 1.327-.11 2.634-.485 3.96-.683 1.327-.198 2.684-.99 4.01-1.565.436-.227.99-.346 1.208-.88.753-1.813 1.614-3.585 2.327-5.417"/><path d="M29.149 30.406c.217-.881.316-1.802.554-2.683.238.881.337 1.802.554 2.683 1.257.195 2.49.527 3.674.99.89-.713 1.465-1.752 2.307-2.525-.238 1.139-.703 2.198-.99 3.307a13.861 13.861 0 0 1 2.802 2.832c1.138-.366 2.257-.802 3.415-1.08-.802.902-1.812 1.585-2.653 2.456.459 1.187.762 2.428.9 3.693 1.189.188 2.36.466 3.506.832-1.188.228-2.386.455-3.565.752a12.04 12.04 0 0 1-.99 3.476c.852.99 1.98 1.752 2.882 2.722-1.288-.346-2.525-.851-3.812-1.178a13.337 13.337 0 0 1-2.624 2.495c.337 1.208.891 2.367 1.129 3.594-.931-.831-1.545-1.98-2.505-2.762a4.277 4.277 0 0 0-1.515.386c-.09 1.644 0 3.287-.08 4.95 0 .585-.85.793-.742 1.416l.475 32.09c-.079 1.564 1.218 2.811 1.149 4.386 0 1.336.099 2.673.089 4.02-.693.485-1.436.9-2.129 1.395a2.05 2.05 0 0 1-2.495 0c-.693-.495-1.435-.91-2.129-1.396 0-1.346.08-2.683.09-4.02-.07-1.574 1.227-2.821 1.148-4.386.149-10.732.327-21.465.465-32.198 0-.564-.722-.752-.732-1.306-.07-1.634 0-3.278-.08-4.951a4.277 4.277 0 0 0-1.504-.426c-.99.782-1.565 1.98-2.505 2.763.237-1.228.792-2.386 1.128-3.594a13.02 13.02 0 0 1-2.614-2.495c-1.297.326-2.534.831-3.821 1.178.9-.99 1.98-1.713 2.89-2.723a11.752 11.752 0 0 1-1.019-3.515c-1.178-.297-2.376-.525-3.564-.752A23.762 23.762 0 0 1 19.743 40c.14-1.268.442-2.512.9-3.703-.841-.861-1.85-1.545-2.653-2.446 1.159.278 2.277.713 3.416 1.08a13.861 13.861 0 0 1 2.802-2.832c-.327-1.109-.792-2.168-.99-3.307.832.792 1.445 1.792 2.307 2.555a14.703 14.703 0 0 1 3.673-.99"/></g></svg>
